!!!Genre:	Zhok
!!!Mode:	Altered Dorian
!!!Listening/dance:	dance
!!!:	*B-:; *G:frey
!!!One_Mode:	no
**kern
*thru
*I"P1
*clefG2
*k[b-]
*g:dor
*M3/4
*>A
=1
4d
4g
8b-L
8ddJ
=2
4cc#X
4dd
8b-L
8ddJ
=3
4cc#X
4dd
8b-L
8ddJ
=4
4cc#X
4dd
12b-L
12a
12gJ
=5
4ff
4ee
4dd
=6
4cc#X
4b-
4cc#
=7
2dd
4gg
=8
2.gg
=9||
4d
4g
8b-L
8ddJ
=10
4cc#X
4dd
8b-L
8ddJ
=11
4cc#X
4dd
8b-L
8ddJ
=12
4cc#X
4dd
12b-L
12a
12gJ
=13
4a
4b-
4a
=14
4a
4g
4f#X
=15
2.g
=16
4g
4r
4r
=17||
*>B
*k[b-e-]
*>bM
*B-:
!LO:TX:a:i:t=Bb-major
4f
4b-
8ddL
8ffJ
=18
4een
4ff
4ee-X
=19
4.dd
8cc
12ee-L
12dd
12ccJ
=20
12ee-L
12dd
12ccJ
2cc
=21
4b-
4a
4g
=22
4ff
4een
4gg
=23
2.ff
=24
2.bb-
=25
4f
4b-
8ddL
8ffJ
=26
4een
4ff
4ee-X
=27
4.dd
8cc
12ee-L
12dd
12ccJ
=28
12ee-L
12dd
12ccJ
2cc
*>eM
*>bM
*G:frey
!LO:TX:a:i:t=G-freygish
=29
4bn
4dd
4cc
=30
4.bn
8f
8gL
8a-XJ
=31
(8gL
8a-X)
(8g
8a-)
(8g
8a-J)
=32
4g
4r
4r
=33!|:
*>C
*k[b-e-a-]
4.bn
8g
8bL
8ddJ
=34
4.cc
8bn
8a-L
8gJ
=35
4.f
8c
8a-L
8gJ
=36
2.f
=37
4c
4f
8enL
8fJ
=38
4g
4a-
12ccL
12bn
12a-J
*>C1
=39
2.g
=40
2.gg
*>C2
=41:|!
(8gL
8a-J)
(8gL
8a-J)
(8gL
8a-J)
=42
4g
4r
4r
*>eM
==
*-
